X:684
T: "Schlummerlied"
N: Z1365
O: Europa, Mitteleuropa, Deutschland, Niederrhein
R: Kinder - Lied
M: 6/8
L: 1/16
K: G
d3ed2B3cB2 | G6D6 |
d3ed2B3cB2 | G6D6 |
A4A2A2B2^c2 | d3^cd2A4A2 |
A3AA2A2B2c2 | d3^cd2A4A2 |
d3ed2B3=cB2 | G6D6 |
d3ed2B3cA2 | G4z8

@@@ Tune index: 10442
